svgs/google_podcasts.svg

<?xml version="1.0" encoding="UTF-8" standalone="no"?>
<svg
   width="24"
   height="24"
   viewBox="0 0 24 24"
   fill="none"
   version="1.1"
   id="svg24"
   sodipodi:docname="google_podcasts.svg"
   inkscape:version="1.1.1 (3bf5ae0d25, 2021-09-20)"
   xmlns:inkscape="http://www.inkscape.org/namespaces/inkscape"
   xmlns:sodipodi="http://sodipodi.sourceforge.net/DTD/sodipodi-0.dtd"
   xmlns="http://www.w3.org/2000/svg"
   xmlns:svg="http://www.w3.org/2000/svg">
  <defs
     id="defs28" />
  <sodipodi:namedview
     id="namedview26"
     pagecolor="#ffffff"
     bordercolor="#666666"
     borderopacity="1.0"
     inkscape:pageshadow="2"
     inkscape:pageopacity="0.0"
     inkscape:pagecheckerboard="true"
     showgrid="true"
     inkscape:zoom="24.542498"
     inkscape:cx="-2.9133139"
     inkscape:cy="11.653256"
     inkscape:window-width="2560"
     inkscape:window-height="1011"
     inkscape:window-x="0"
     inkscape:window-y="32"
     inkscape:window-maximized="1"
     inkscape:current-layer="svg24">
    <inkscape:grid
       type="xygrid"
       id="grid925"
       empspacing="1" />
  </sodipodi:namedview>
  <path
     id="path22"
     style="color:#000000;fill:#000000;stroke-width:1.30363;stroke-linecap:round;-inkscape-stroke:none"
     d="M 11.998727,2.0000014 A 1.2125957,1.2125957 0 0 0 10.786761,3.2119681 V 4.5792499 A 1.2125957,1.2125957 0 0 0 11.998727,5.7912166 1.2125957,1.2125957 0 0 0 13.21324,4.5792499 V 3.2119681 A 1.2125957,1.2125957 0 0 0 11.998727,2.0000014 Z m 0,5.1406741 a 1.2125957,1.2125957 0 0 0 -1.211966,1.211967 v 7.2947165 a 1.2125957,1.2125957 0 0 0 1.211966,1.211966 1.2125957,1.2125957 0 0 0 1.214513,-1.211966 V 8.3526425 a 1.2125957,1.2125957 0 0 0 -1.214513,-1.211967 z m 0,11.0655625 a 1.2125957,1.2125957 0 0 0 -1.211966,1.214513 v 1.367282 a 1.2125957,1.2125957 0 0 0 1.211966,1.211966 1.2125957,1.2125957 0 0 0 1.214513,-1.211966 v -1.367282 a 1.2125957,1.2125957 0 0 0 -1.214513,-1.214513 z m -0.651814,1.214513 v 1.367282 h 1.303628 V 19.420751 Z M 16.39338,6.0000009 a 1.2125957,1.2125957 0 0 0 -1.211967,1.2119666 v 1.369829 a 1.2125957,1.2125957 0 0 0 1.211967,1.211966 1.2125957,1.2125957 0 0 0 1.211967,-1.211966 V 7.2119675 A 1.2125957,1.2125957 0 0 0 16.39338,6.0000009 Z m 0,5.0999361 a 1.2125957,1.2125957 0 0 0 -1.211967,1.214513 v 4.471036 A 1.2125957,1.2125957 0 0 0 16.39338,18 1.2125957,1.2125957 0 0 0 17.605347,16.785486 V 12.31445 A 1.2125957,1.2125957 0 0 0 16.39338,11.099937 Z M 15.741565,7.2119675 v 1.369829 h 1.303629 V 7.2119675 Z M 7.606621,6.0000009 A 1.2125957,1.2125957 0 0 0 6.3946542,7.2145135 V 11.685551 A 1.2125957,1.2125957 0 0 0 7.606621,12.900065 1.2125957,1.2125957 0 0 0 8.8185882,11.685551 V 7.2145135 A 1.2125957,1.2125957 0 0 0 7.606621,6.0000009 Z m 0,8.2062381 a 1.2125957,1.2125957 0 0 0 -1.2119668,1.211966 v 1.369827 A 1.2125957,1.2125957 0 0 0 7.606621,18 1.2125957,1.2125957 0 0 0 8.8185882,16.788032 V 15.418205 A 1.2125957,1.2125957 0 0 0 7.606621,14.206239 Z m -0.6518141,1.211966 v 1.369827 H 8.2584353 V 15.418205 Z M 20.788032,10.104392 a 1.2125957,1.2125957 0 0 0 -1.214513,1.211968 v 1.367281 a 1.2125957,1.2125957 0 0 0 1.214513,1.211968 1.2125957,1.2125957 0 0 0 1.211966,-1.211968 V 11.31636 a 1.2125957,1.2125957 0 0 0 -1.211966,-1.211968 z m -0.651814,1.211968 v 1.367281 h 1.303628 V 11.31636 Z M 3.2119684,10.104392 A 1.2125957,1.2125957 0 0 0 2.0000017,11.31636 v 1.367281 a 1.2125957,1.2125957 0 0 0 1.2119667,1.211968 1.2125957,1.2125957 0 0 0 1.2119668,-1.211968 V 11.31636 A 1.2125957,1.2125957 0 0 0 3.2119684,10.104392 Z m -0.651814,1.211968 v 1.367281 H 3.8637825 V 11.31636 Z" />
</svg>

<svg xmlns="http://www.w3.org/2000/svg" width="24" height="24" fill="none" viewBox="0 0 24 24"><path d="M11.999 2a1.213 1.213 0 0 0-1.212 1.212v1.367a1.213 1.213 0 0 0 1.212 1.212 1.213 1.213 0 0 0 1.214-1.212V3.212A1.213 1.213 0 0 0 12 2m0 5.14a1.213 1.213 0 0 0-1.212 1.213v7.294A1.213 1.213 0 0 0 12 16.859a1.213 1.213 0 0 0 1.214-1.212V8.353A1.213 1.213 0 0 0 12 7.14m0 11.066a1.213 1.213 0 0 0-1.212 1.215v1.367A1.213 1.213 0 0 0 11.999 22a1.213 1.213 0 0 0 1.214-1.212v-1.367A1.213 1.213 0 0 0 12 18.206m-.652 1.215v1.367h1.304v-1.367ZM16.393 6a1.213 1.213 0 0 0-1.212 1.212v1.37a1.213 1.213 0 0 0 1.212 1.212 1.213 1.213 0 0 0 1.212-1.212v-1.37A1.213 1.213 0 0 0 16.393 6m0 5.1a1.213 1.213 0 0 0-1.212 1.214v4.471A1.213 1.213 0 0 0 16.393 18a1.213 1.213 0 0 0 1.212-1.215v-4.47a1.213 1.213 0 0 0-1.212-1.215m-.651-3.888v1.37h1.303v-1.37ZM7.607 6a1.213 1.213 0 0 0-1.212 1.215v4.47A1.213 1.213 0 0 0 7.607 12.9a1.213 1.213 0 0 0 1.212-1.214V7.215A1.213 1.213 0 0 0 7.607 6Zm0 8.206a1.213 1.213 0 0 0-1.212 1.212v1.37A1.213 1.213 0 0 0 7.607 18a1.213 1.213 0 0 0 1.212-1.212v-1.37a1.213 1.213 0 0 0-1.212-1.212Zm-.652 1.212v1.37h1.303v-1.37Zm13.833-5.314a1.213 1.213 0 0 0-1.214 1.212v1.368a1.213 1.213 0 0 0 1.214 1.212A1.213 1.213 0 0 0 22 12.684v-1.368a1.213 1.213 0 0 0-1.212-1.212m-.652 1.212v1.368h1.304v-1.368ZM3.212 10.104A1.213 1.213 0 0 0 2 11.316v1.368a1.213 1.213 0 0 0 1.212 1.212 1.213 1.213 0 0 0 1.212-1.212v-1.368a1.213 1.213 0 0 0-1.212-1.212m-.652 1.212v1.368h1.304v-1.368Z" style="color:#000;fill:#000;stroke-width:1.30363;stroke-linecap:round;-inkscape-stroke:none"/></svg>
